X:29
T:Death of my friend, The
T:'Se so marbhrann mo charaid
R:Slow Air
S:Simon Fraser Collection
N:No.94
O:Scottish
M:3/4
L:1/8
K:C Minor
F>G|A2G2F2|F3z C>C|A2c2G2|F3z C>C|E2F2G2|B4e2|G6|E2 z2 F>G|
A2G2F2|F3z C>C|c2d2c2|B3z c>c|c2A2G2|F4B,2|C6|F2 z2:|
|:c>c|f2g2a2|g3z c>c|f2g2a2|g3z c>c|f2g2a2|g4e2|c6|f2 z2 F>G|A2B2c2|
e3z c>c|B2A2G2|E2 z2 e>e|c2A2G2|F4 B,2|C6|F2 z2:|

